X: 5
T:Bobbing Around (Bampton)
M:6/8
L:1/8
O:England; Oxfordshire; Bampton.
B:Lionel Bacon, A Handbook of Morris Dances
Z:http://www.themorrisring.org/music/handbook-morris-dances
P:A(AB2)4
K:A
P:A
EA2B c2d |e2a  a>ec|{e}d>cB e>cB|A2G F2E |
A2B c2d  |e2a  a>ec|   d>cB BeG |A3  A2  ||
P:B
c/e/|f2B B>cd|e>cA A>Bc| d2B c2A|B2G E>cd|
     e2c d>cB|c>BA B>cd|e>cA B2G|A3 A2   ||

